assets/svg/youtube.svg

<svg fill="none" height="17" viewBox="0 0 24 17" width="24" xmlns="http://www.w3.org/2000/svg"><path clip-rule="evenodd" d="m20.184.252337c1.4385.082909 2.145.300929 2.796 1.486223.678 1.18376 1.02 3.22271 1.02 6.8139v.0046.00768c0 3.57426-.342 5.62856-1.0185 6.80006-.651 1.1853-1.3575 1.4003-2.796 1.5001-1.4385.0844-5.052.1351-8.1825.1351-3.1365 0-6.7515-.0507-8.1885-.1367-1.4355-.0998-2.142-.3147-2.799-1.5-.6705-1.1715-1.0155-3.2258-1.0155-6.8001v-.00307-.0046-.00461c0-3.58965.345-5.6286 1.0155-6.81236.657-1.186829 1.365-1.403314 2.8005-1.487759 1.4355-.098262 5.0505-.139717 8.187-.139717 3.1305 0 6.744.041455 8.181.141253zm-3.0411 8.866153-8.00004-4.5037v9.00741z" fill="#00343d" fill-rule="evenodd"/></svg>

<svg width="24" height="17" viewBox="0 0 24 17" fill="none" xmlns="http://www.w3.org/2000/svg">
<path fill-rule="evenodd" clip-rule="evenodd" d="M20.184 0.252337C21.6225 0.335246 22.329 0.553266 22.98 1.73856C23.658 2.92232 24 4.96127 24 8.55246V8.55706V8.56474C24 12.139 23.658 14.1933 22.9815 15.3648C22.3305 16.5501 21.624 16.7651 20.1855 16.8649C18.747 16.9493 15.1335 17 12.003 17C8.8665 17 5.2515 16.9493 3.8145 16.8633C2.379 16.7635 1.6725 16.5486 1.0155 15.3633C0.345 14.1918 0 12.1375 0 8.5632V8.56013V8.55553V8.55092C0 4.96127 0.345 2.92232 1.0155 1.73856C1.6725 0.551731 2.3805 0.335246 3.816 0.250801C5.2515 0.152539 8.8665 0.111084 12.003 0.111084C15.1335 0.111084 18.747 0.152539 20.184 0.252337ZM17.1429 9.11849L9.14286 4.61479V13.6222L17.1429 9.11849Z" fill="#00343D"/>
</svg>
